X:0094
M:6/8
L:1/8
Q:3/8=84
K:D
agf geA|f>ge fdA|d2e fga|agf e2A|
dce d2e|fga  A2A|Bcd Bgf|edc d3|]

